src/components/Icon/icons/IconChipWarning/chipWarning.svg

<svg width="14" height="14" xmlns="http://www.w3.org/2000/svg"><path fill-rule="evenodd" clip-rule="evenodd" d="M13.4531 7.54688C13.7552 7.54688 14 7.30206 14 7s-.2448-.54688-.5469-.54688h-1.6042V5.3958h1.6042c.3021 0 .5469-.24481.5469-.54688 0-.30206-.2448-.54687-.5469-.54687h-1.6042v-1.6041c0-.30206-.2448-.54687-.5469-.54687H9.69795V.54688C9.69795.2448 9.45314 0 9.15108 0c-.30207 0-.54688.24481-.54688.54688v1.6042H7.54688V.54688C7.54688.2448 7.30206 0 7 0s-.54688.24481-.54688.54688v1.6042H5.3958V.54688C5.3958.2448 5.15099 0 4.84892 0c-.30206 0-.54687.24481-.54687.54688v1.6042h-1.6041c-.30206 0-.54687.24481-.54687.54687v1.6042H.54688C.2448 4.30215 0 4.54697 0 4.84903c0 .30196.24481.54687.54688.54687h1.6042v1.05722H.54688C.2448 6.45312 0 6.69794 0 7s.24481.54688.54688.54688h1.6042V8.6042H.54688C.2448 8.6042 0 8.84901 0 9.15108c0 .30206.24481.54687.54688.54687h1.6042v1.60425c0 .3019.24481.5468.54687.5468h1.6042v1.6041c0 .3021.24482.5469.54688.5469.30196 0 .54687-.2448.54687-.5469v-1.6042h1.05722v1.6042c0 .3021.24482.5469.54688.5469s.54688-.2448.54688-.5469v-1.6042H8.6042v1.6042c0 .3021.24481.5469.54688.5469.30206 0 .54687-.2448.54687-.5469v-1.6042H11.302c.3021 0 .5469-.2448.5469-.5469V9.69785h1.6042c.3021 0 .5469-.24482.5469-.54688 0-.30196-.2448-.54687-.5469-.54687h-1.6042V7.54688h1.6042zM3.24483 3.24483h7.51047v7.51037H3.24483V3.24483zm3.75171.70634c.27642 0 .49986.22345.49986.49987v2.99919c0 .27642-.22344.49987-.49986.49987s-.49987-.22395-.49987-.49987V4.45104c0-.27642.22343-.49987.49987-.49987zm-.35439 5.19224c-.045.04498-.07999.09996-.10498.16495-.02498.05998-.03998.12497-.03998.18996 0 .06499.015.12998.03998.18996.02501.05997.05998.11496.10498.16495.05048.045.10497.07999.16495.10497.05997.02498.12445.03998.18944.03998.06499 0 .12998-.015.18996-.03998.05997-.02501.11495-.06.16495-.10497.045-.04999.07999-.10498.10497-.16495.02498-.06.03998-.12497.03998-.18996 0-.06499-.015-.12998-.03998-.18996-.02501-.06497-.05997-.11997-.10497-.16495-.11447-.11449-.28992-.16996-.44939-.13497-.03499.00501-.06496.0145-.09496.03-.03.0105-.06.025-.08499.045-.0222.01109-.04167.02768-.06043.04367-.00657.00559-.01305.01112-.01953.0163z"/></svg>

<svg width="14" height="14" xmlns="http://www.w3.org/2000/svg"><path fill-rule="evenodd" clip-rule="evenodd" d="M13.4531 7.54688C13.7552 7.54688 14 7.30206 14 7C14 6.69794 13.7552 6.45312 13.4531 6.45312H11.8489V5.3958H13.4531C13.7552 5.3958 14 5.15099 14 4.84892C14 4.54686 13.7552 4.30205 13.4531 4.30205H11.8489V2.69795C11.8489 2.39589 11.6041 2.15108 11.302 2.15108H9.69795V0.546875C9.69795 0.244812 9.45314 0 9.15108 0C8.84901 0 8.6042 0.244812 8.6042 0.546875V2.15108H7.54688V0.546875C7.54688 0.244812 7.30206 0 7 0C6.69794 0 6.45312 0.244812 6.45312 0.546875V2.15108H5.3958V0.546875C5.3958 0.244812 5.15099 0 4.84892 0C4.54686 0 4.30205 0.244812 4.30205 0.546875V2.15108H2.69795C2.39589 2.15108 2.15108 2.39589 2.15108 2.69795V4.30215H0.546875C0.244812 4.30215 0 4.54697 0 4.84903C0 5.15099 0.244812 5.3959 0.546875 5.3959H2.15108V6.45312H0.546875C0.244812 6.45312 0 6.69794 0 7C0 7.30206 0.244812 7.54688 0.546875 7.54688H2.15108V8.6042H0.546875C0.244812 8.6042 0 8.84901 0 9.15108C0 9.45314 0.244812 9.69795 0.546875 9.69795H2.15108V11.3022C2.15108 11.6041 2.39589 11.849 2.69795 11.849H4.30215V13.4531C4.30215 13.7552 4.54697 14 4.84903 14C5.15099 14 5.3959 13.7552 5.3959 13.4531V11.8489H6.45312V13.4531C6.45312 13.7552 6.69794 14 7 14C7.30206 14 7.54688 13.7552 7.54688 13.4531V11.8489H8.6042V13.4531C8.6042 13.7552 8.84901 14 9.15108 14C9.45314 14 9.69795 13.7552 9.69795 13.4531V11.8489H11.302C11.6041 11.8489 11.8489 11.6041 11.8489 11.302V9.69785H13.4531C13.7552 9.69785 14 9.45303 14 9.15097C14 8.84901 13.7552 8.6041 13.4531 8.6041H11.8489V7.54688H13.4531ZM3.24483 3.24483H10.7553V10.7552H10.7552H3.24483V3.24483ZM6.99654 3.95117C7.27296 3.95117 7.4964 4.17462 7.4964 4.45104V7.45023C7.4964 7.72665 7.27296 7.9501 6.99654 7.9501C6.72012 7.9501 6.49667 7.72615 6.49667 7.45023V4.45104C6.49667 4.17462 6.7201 3.95117 6.99654 3.95117ZM6.64215 9.14341C6.59715 9.18839 6.56216 9.24337 6.53717 9.30836C6.51219 9.36834 6.49719 9.43333 6.49719 9.49832C6.49719 9.56331 6.51219 9.6283 6.53717 9.68828C6.56218 9.74825 6.59715 9.80324 6.64215 9.85323C6.69263 9.89823 6.74712 9.93322 6.8071 9.9582C6.86707 9.98318 6.93155 9.99818 6.99654 9.99818C7.06153 9.99818 7.12652 9.98318 7.1865 9.9582C7.24647 9.93319 7.30145 9.8982 7.35145 9.85323C7.39645 9.80324 7.43144 9.74825 7.45642 9.68828C7.4814 9.62828 7.4964 9.56331 7.4964 9.49832C7.4964 9.43333 7.4814 9.36834 7.45642 9.30836C7.43141 9.24339 7.39645 9.18839 7.35145 9.14341C7.23698 9.02892 7.06153 8.97345 6.90206 9.00844C6.86707 9.01345 6.8371 9.02294 6.8071 9.03844C6.7771 9.04894 6.7471 9.06344 6.72211 9.08344C6.69991 9.09453 6.68044 9.11112 6.66168 9.12711C6.65511 9.1327 6.64863 9.13823 6.64215 9.14341Z"/></svg>
